X:66
T:Caw the Wither to the Hill
S:Petrie's Third Collection of Strathspey Reels and Country Dances &c.
Z:Steve Wyrick , 7/31/05
N:Petrie's Third Collection, page 25
L:1/8
M:C
R:Reel
K:G
B|G2GB d2de|dBGB AGEG|G2GB d2de|dBAB G2G:|f|gfed eeeg|gfed edBf|
gfed e/e/e g2|dBAB G2Gf|gfed e/e/e g2|gfed edBf|gfed efga|bgaf g2g|]
